public/icons/icon-shield.svg

<svg width="77" height="73" viewBox="0 0 77 73" fill="none" xmlns="http://www.w3.org/2000/svg">
<path d="M37.8079 46.6187C37.5746 46.7534 37.3106 46.8349 37.0375 46.848L28.2369 47.273C25.7391 47.3925 23.5905 47.1487 21.6658 46.5308C17.4545 45.1805 13.9205 42.3664 11.7172 38.6028L4.46069 26.2182C3.62291 24.789 3.81072 22.9636 4.92289 21.6749L14.8868 10.164C15.4749 9.47425 16.2978 8.99423 17.1971 8.81299L32.1104 5.76509C33.7785 5.42169 35.4631 6.15378 36.2979 7.58222L43.5597 19.976C45.7617 23.7331 46.4895 28.1869 45.6111 32.5173C45.2078 34.5038 44.3674 36.4954 43.0446 38.6062L38.3826 46.0592C38.2387 46.2917 38.0401 46.4822 37.8079 46.6187" fill="url(#paint0_linear)"/>
<g filter="url(#filter0_f)">
<path d="M33.9164 39.239C33.7582 39.3303 33.5818 39.3901 33.4019 39.4084L27.607 39.9969C25.9622 40.1633 24.5603 40.0938 23.3194 39.7863C20.6042 39.1145 18.3883 37.5192 17.0816 35.2916L12.7777 27.9618C12.2808 27.116 12.4721 25.9888 13.2505 25.1565L20.2224 17.7214C20.6342 17.2762 21.1925 16.951 21.7898 16.8063L31.6967 14.3804C32.8049 14.1075 33.8838 14.494 34.3789 15.3395L38.6859 22.6748C39.992 24.8984 40.3041 27.6045 39.5659 30.2947C39.2271 31.5288 38.601 32.7822 37.6537 34.1268L34.3146 38.8742C34.2115 39.0222 34.074 39.1465 33.9164 39.239" fill="#173DE3" fill-opacity="0.5"/>
</g>
<g filter="url(#filter1_b)">
<mask id="path-3-outside-1" maskUnits="userSpaceOnUse" x="16.8938" y="6.20336" width="59.5278" height="67.0551" fill="black">
<rect fill="white" x="16.8938" y="6.20336" width="59.5278" height="67.0551"/>
<path d="M42.6063 68.3025C42.2522 68.248 41.9107 68.1123 41.6166 67.8977L32.1402 60.9845C29.4515 59.0212 27.4273 56.9707 25.9471 54.7169C22.7069 49.7873 21.3883 43.8962 22.2402 38.1266L25.0372 19.1357C25.3595 16.9438 27.0751 15.1958 29.3017 14.7806L49.2208 11.0967C50.4051 10.8684 51.658 11.0554 52.7413 11.618L70.7394 20.9037C72.7546 21.9398 73.8908 24.112 73.566 26.3006L70.7669 45.3056C69.9191 51.0672 66.9627 56.3238 62.4441 60.1089C60.3709 61.8449 57.8404 63.2208 54.7104 64.3179L43.6682 68.1989C43.3253 68.3212 42.9608 68.3541 42.6063 68.3025"/>
</mask>
<path d="M42.6063 68.3025C42.2522 68.248 41.9107 68.1123 41.6166 67.8977L32.1402 60.9845C29.4515 59.0212 27.4273 56.9707 25.9471 54.7169C22.7069 49.7873 21.3883 43.8962 22.2402 38.1266L25.0372 19.1357C25.3595 16.9438 27.0751 15.1958 29.3017 14.7806L49.2208 11.0967C50.4051 10.8684 51.658 11.0554 52.7413 11.618L70.7394 20.9037C72.7546 21.9398 73.8908 24.112 73.566 26.3006L70.7669 45.3056C69.9191 51.0672 66.9627 56.3238 62.4441 60.1089C60.3709 61.8449 57.8404 63.2208 54.7104 64.3179L43.6682 68.1989C43.3253 68.3212 42.9608 68.3541 42.6063 68.3025" fill="#556AF1" fill-opacity="0.35"/>
<path d="M42.4986 69.0027C42.8853 69.0622 43.247 68.7969 43.3065 68.4102C43.366 68.0235 43.1007 67.6618 42.714 67.6023L42.4986 69.0027ZM41.6166 67.8977L42.0342 67.3254L42.0342 67.3254L41.6166 67.8977ZM32.1402 60.9845L31.7225 61.5566L31.7227 61.5568L32.1402 60.9845ZM25.9471 54.7169L26.5393 54.328L26.5391 54.3277L25.9471 54.7169ZM22.2402 38.1266L22.9411 38.2301L22.9411 38.2298L22.2402 38.1266ZM25.0372 19.1357L25.738 19.2389L25.7381 19.2387L25.0372 19.1357ZM29.3017 14.7806L29.1729 14.0839L29.1718 14.0841L29.3017 14.7806ZM49.2208 11.0967L49.3497 11.7933L49.3549 11.7923L49.2208 11.0967ZM52.7413 11.618L52.4147 12.2467L52.4165 12.2476L52.7413 11.618ZM70.7394 20.9037L70.4146 21.5333L70.4155 21.5338L70.7394 20.9037ZM73.566 26.3006L72.8653 26.1966L72.8652 26.1974L73.566 26.3006ZM70.7669 45.3056L70.0661 45.2024L70.066 45.2024L70.7669 45.3056ZM62.4441 60.1089L62.8989 60.652L62.899 60.652L62.4441 60.1089ZM54.7104 64.3179L54.4761 63.6493L54.4755 63.6495L54.7104 64.3179ZM43.6682 68.1989L43.4333 67.5305L43.4302 67.5316L43.6682 68.1989ZM42.7084 67.6015C42.3212 67.545 41.9617 67.8132 41.9052 68.2003C41.8488 68.5875 42.117 68.9471 42.5041 69.0035L42.7084 67.6015ZM42.714 67.6023C42.4664 67.5642 42.2322 67.4699 42.0342 67.3254L41.1991 68.47C41.5892 68.7546 42.0381 68.9319 42.4986 69.0027L42.714 67.6023ZM42.0342 67.3254L32.5577 60.4122L31.7227 61.5568L41.1991 68.47L42.0342 67.3254ZM32.558 60.4124C29.9226 58.4881 27.9635 56.4965 26.5393 54.328L25.355 55.1057C26.8912 57.4449 28.9803 59.5543 31.7225 61.5566L32.558 60.4124ZM26.5391 54.3277C23.393 49.5413 22.1149 43.8252 22.9411 38.2301L21.5394 38.0231C20.6617 43.9672 22.0207 50.0332 25.3551 55.106L26.5391 54.3277ZM22.9411 38.2298L25.738 19.2389L24.3363 19.0324L21.5394 38.0234L22.9411 38.2298ZM25.7381 19.2387C26.0149 17.3566 27.4922 15.8387 29.4316 15.477L29.1718 14.0841C26.658 14.5529 24.7042 16.531 24.3363 19.0326L25.7381 19.2387ZM29.4305 15.4772L49.3497 11.7933L49.092 10.4001L29.1729 14.0839L29.4305 15.4772ZM49.3549 11.7923C50.3795 11.5948 51.4705 11.7562 52.4147 12.2467L53.0678 10.9894C51.8456 10.3545 50.4306 10.142 49.0867 10.4011L49.3549 11.7923ZM52.4165 12.2476L70.4146 21.5333L71.0642 20.2742L53.0661 10.9885L52.4165 12.2476ZM70.4155 21.5338C72.1692 22.4354 73.1442 24.3173 72.8653 26.1966L74.2668 26.4046C74.6375 23.9067 73.34 21.4442 71.0633 20.2737L70.4155 21.5338ZM72.8652 26.1974L70.0661 45.2024L71.4678 45.4088L74.2669 26.4039L72.8652 26.1974ZM70.066 45.2024C69.2439 50.7899 66.3765 55.8907 61.9892 59.5658L62.899 60.652C67.5489 56.7569 70.5944 51.3446 71.4678 45.4087L70.066 45.2024ZM61.9892 59.5657C59.9945 61.2361 57.5435 62.5741 54.4761 63.6493L54.9448 64.9865C58.1372 63.8674 60.7472 62.4538 62.8989 60.652L61.9892 59.5657ZM54.4755 63.6495L43.4333 67.5305L43.9031 68.8672L54.9453 64.9863L54.4755 63.6495ZM43.4302 67.5316C43.1995 67.614 42.9519 67.6369 42.7084 67.6015L42.5041 69.0035C42.9696 69.0713 43.4511 69.0285 43.9062 68.8661L43.4302 67.5316Z" fill="url(#paint1_linear)" mask="url(#path-3-outside-1)"/>
</g>
<g filter="url(#filter2_bd)">
<path d="M43.7889 46.0101C43.2358 45.9279 42.7138 45.6438 42.3507 45.169L37.6809 39.0553C36.9605 38.1064 37.1563 36.7762 38.1207 36.0807C39.0855 35.3825 40.454 35.5843 41.1777 36.5308L44.5381 40.9278L55.6264 32.9154C56.5941 32.2176 57.9627 32.4195 58.6834 33.3655C59.4067 34.3147 59.2105 35.6478 58.2465 36.3404L45.4078 45.6191C44.9237 45.9694 44.342 46.0923 43.7889 46.0101Z" fill="url(#paint2_linear)"/>
<path d="M38.1622 36.1381L38.1621 36.1382C37.2302 36.8102 37.0409 38.0951 37.7373 39.0124L42.407 45.126C42.7582 45.5852 43.2633 45.8604 43.7993 45.94C44.3351 46.0196 44.898 45.9005 45.3662 45.5617L45.3663 45.5616L58.205 36.283L58.2052 36.2829C59.1365 35.6137 59.3263 34.3262 58.6271 33.4084C57.9297 32.4931 56.6046 32.2974 55.6679 32.9728L38.1622 36.1381ZM38.1622 36.1381C39.0958 35.4624 40.421 35.6578 41.1214 36.5738C41.1214 36.5738 41.1214 36.5738 41.1214 36.5738L44.4819 40.9708L44.5237 41.0256L44.5796 40.9852L55.6679 32.9729L38.1622 36.1381Z" stroke="url(#paint3_linear)" stroke-opacity="0.5" stroke-width="0.141687"/>
</g>
<defs>
<filter id="filter0_f" x="1.16897" y="2.95804" width="50.1237" height="48.4609" filterUnits="userSpaceOnUse" color-interpolation-filters="sRGB">
<feFlood flood-opacity="0" result="BackgroundImageFix"/>
<feBlend mode="normal" in="SourceGraphic" in2="BackgroundImageFix" result="shape"/>
<feGaussianBlur stdDeviation="5.66747" result="effect1_foregroundBlur"/>
</filter>
<filter id="filter1_b" x="0.245647" y="-10.4672" width="93.0205" height="100.279" filterUnits="userSpaceOnUse" color-interpolation-filters="sRGB">
<feFlood flood-opacity="0" result="BackgroundImageFix"/>
<feGaussianBlur in="BackgroundImage" stdDeviation="8.5012"/>
<feComposite in2="SourceAlpha" operator="in" result="effect1_backgroundBlur"/>
<feBlend mode="normal" in="SourceGraphic" in2="effect1_backgroundBlur" result="shape"/>
</filter>
<filter id="filter2_bd" x="25.5107" y="19.0102" width="44.5354" height="39.6708" filterUnits="userSpaceOnUse" color-interpolation-filters="sRGB">
<feFlood flood-opacity="0" result="BackgroundImageFix"/>
<feGaussianBlur in="BackgroundImage" stdDeviation="5.31325"/>
<feComposite in2="SourceAlpha" operator="in" result="effect1_backgroundBlur"/>
<feColorMatrix in="SourceAlpha" type="matrix" values="0 0 0 0 0 0 0 0 0 0 0 0 0 0 0 0 0 0 127 0"/>
<feOffset dx="3.54217" dy="3.54217"/>
<feGaussianBlur stdDeviation="3.54217"/>
<feColorMatrix type="matrix" values="0 0 0 0 0.0588235 0 0 0 0 0.188235 0 0 0 0 0.666667 0 0 0 0.5 0"/>
<feBlend mode="normal" in2="effect1_backgroundBlur" result="effect2_dropShadow"/>
<feBlend mode="normal" in="SourceGraphic" in2="effect2_dropShadow" result="shape"/>
</filter>
<linearGradient id="paint0_linear" x1="32.0276" y1="0.00105858" x2="20.7217" y2="42.1763" gradientUnits="userSpaceOnUse">
<stop stop-color="#9296FF"/>
<stop offset="1" stop-color="#173DE3"/>
</linearGradient>
<linearGradient id="paint1_linear" x1="33.5632" y1="15.1956" x2="64.7951" y2="60.1575" gradientUnits="userSpaceOnUse">
<stop stop-color="white" stop-opacity="0.25"/>
<stop offset="1" stop-color="white" stop-opacity="0"/>
</linearGradient>
<linearGradient id="paint2_linear" x1="57.5123" y1="35.3738" x2="34.0425" y2="32.8365" gradientUnits="userSpaceOnUse">
<stop stop-color="#E8F5FF"/>
<stop offset="1" stop-color="#E8F5FF" stop-opacity="0.21"/>
</linearGradient>
<linearGradient id="paint3_linear" x1="39.9464" y1="35.0814" x2="57.7105" y2="37.952" gradientUnits="userSpaceOnUse">
<stop stop-color="#E8F5FF"/>
<stop offset="1" stop-color="#E8F5FF" stop-opacity="0"/>
</linearGradient>
</defs>
</svg>

<svg viewBox="0 0 77 73" fill="none" xmlns="http://www.w3.org/2000/svg"><path d="M37.808 46.619a1.708 1.708 0 0 1-.77.229l-8.801.425c-2.498.12-4.646-.124-6.571-.742-4.212-1.35-7.745-4.165-9.949-7.928L4.461 26.218c-.838-1.429-.65-3.254.462-4.543l9.964-11.511a4.117 4.117 0 0 1 2.31-1.351L32.11 5.765c1.669-.343 3.353.389 4.188 1.817l7.262 12.394c2.202 3.757 2.93 8.21 2.051 12.541-.403 1.987-1.244 3.978-2.566 6.09l-4.662 7.452a1.67 1.67 0 0 1-.575.56" fill="url(#a)"/><g filter="url(#b)"><path d="M33.916 39.239a1.299 1.299 0 0 1-.514.17l-5.795.588c-1.645.166-3.047.097-4.288-.21-2.715-.672-4.93-2.268-6.237-4.495l-4.304-7.33c-.497-.846-.306-1.973.473-2.805l6.971-7.436c.412-.445.97-.77 1.568-.915l9.907-2.426c1.108-.273 2.187.114 2.682.96l4.307 7.335c1.306 2.223 1.618 4.93.88 7.62-.339 1.234-.965 2.487-1.912 3.832l-3.34 4.747c-.102.148-.24.273-.398.365" fill="#173DE3" fill-opacity=".5"/></g><g filter="url(#c)"><mask id="e" maskUnits="userSpaceOnUse" x="16.894" y="6.203" width="59.528" height="67.055" fill="#000"><path fill="#fff" d="M16.894 6.203h59.528v67.055H16.894z"/><path d="M42.606 68.302a2.262 2.262 0 0 1-.99-.404l-9.476-6.913c-2.689-1.964-4.713-4.014-6.193-6.268-3.24-4.93-4.559-10.82-3.707-16.59l2.797-18.991c.323-2.192 2.038-3.94 4.265-4.355l19.919-3.684a5.446 5.446 0 0 1 3.52.521l17.998 9.286c2.016 1.036 3.152 3.208 2.827 5.397l-2.8 19.005c-.847 5.761-3.803 11.018-8.322 14.803-2.073 1.736-4.604 3.112-7.734 4.209l-11.042 3.88a2.21 2.21 0 0 1-1.062.105"/></mask><path d="M42.606 68.302a2.262 2.262 0 0 1-.99-.404l-9.476-6.913c-2.689-1.964-4.713-4.014-6.193-6.268-3.24-4.93-4.559-10.82-3.707-16.59l2.797-18.991c.323-2.192 2.038-3.94 4.265-4.355l19.919-3.684a5.446 5.446 0 0 1 3.52.521l17.998 9.286c2.016 1.036 3.152 3.208 2.827 5.397l-2.8 19.005c-.847 5.761-3.803 11.018-8.322 14.803-2.073 1.736-4.604 3.112-7.734 4.209l-11.042 3.88a2.21 2.21 0 0 1-1.062.105" fill="#556AF1" fill-opacity=".35"/><path d="M42.499 69.003a.708.708 0 0 0 .215-1.4l-.215 1.4zm-.882-1.105.417-.573-.417.573zm-9.477-6.913-.418.572.418-.573zm-6.193-6.268.592-.389-.592.389zm-3.707-16.59.701.103-.7-.103zm2.797-18.991.701.103-.7-.103zm4.265-4.355-.13-.697.13.697zm19.919-3.684.129.696h.005l-.134-.696zm3.52.521-.326.629h.002l.324-.629zm17.998 9.286-.324.63.324-.63zm2.827 5.397-.7-.104.7.104zm-2.8 19.005-.7-.104.7.104zm-8.322 14.803.455.543-.455-.543zm-7.734 4.209-.234-.669.234.669zm-11.042 3.88-.235-.667h-.003l.238.668zm-.96-.596a.708.708 0 1 0-.204 1.401l.204-1.401zm.006 0a1.554 1.554 0 0 1-.68-.277L41.2 68.47c.39.285.84.462 1.3.533l.215-1.4zm-.68-.277-9.476-6.913-.835 1.145 9.476 6.913.835-1.145zm-9.476-6.913c-2.635-1.924-4.595-3.916-6.019-6.084l-1.184.778c1.536 2.339 3.625 4.448 6.367 6.45l.836-1.144zm-6.019-6.084c-3.146-4.787-4.424-10.503-3.598-16.098l-1.402-.207c-.877 5.944.482 12.01 3.816 17.083l1.184-.778zM22.941 38.23l2.797-18.991-1.402-.207-2.797 18.991 1.402.207zm2.797-18.991c.277-1.882 1.754-3.4 3.694-3.762l-.26-1.393c-2.514.469-4.468 2.447-4.836 4.949l1.402.206zm3.692-3.762 19.92-3.684-.258-1.393-19.92 3.684.258 1.393zm19.925-3.685a4.737 4.737 0 0 1 3.06.455l.653-1.258a6.153 6.153 0 0 0-3.981-.588l.268 1.391zm3.062.456 17.998 9.285.65-1.259-17.999-9.286-.65 1.26zm17.998 9.286c1.754.901 2.73 2.783 2.45 4.663l1.402.208c.37-2.498-.927-4.96-3.204-6.131l-.648 1.26zm2.45 4.663-2.799 19.005 1.402.207 2.799-19.005-1.402-.207zm-2.799 19.005c-.822 5.588-3.69 10.689-8.077 14.364l.91 1.086c4.65-3.895 7.695-9.307 8.569-15.243l-1.402-.207zm-8.077 14.364c-1.994 1.67-4.445 3.008-7.513 4.083l.469 1.338c3.192-1.12 5.802-2.533 7.954-4.335l-.91-1.086zm-7.514 4.084-11.042 3.88.47 1.337 11.042-3.88-.47-1.337zM43.43 67.532c-.23.082-.478.105-.722.07l-.204 1.401c.466.068.947.025 1.402-.137l-.476-1.334z" fill="url(#d)" mask="url(#e)"/></g><g filter="url(#f)"><path d="M43.789 46.01a2.21 2.21 0 0 1-1.438-.841l-4.67-6.114a2.088 2.088 0 0 1 .44-2.974 2.226 2.226 0 0 1 3.057.45l3.36 4.397 11.088-8.013a2.226 2.226 0 0 1 3.057.45c.724.95.528 2.283-.437 2.975l-12.838 9.28a2.199 2.199 0 0 1-1.62.39z" fill="url(#g)"/><path d="M38.162 36.138a2.018 2.018 0 0 0-.425 2.874l4.67 6.114c.351.46.856.734 1.392.814.536.08 1.099-.04 1.567-.378l12.839-9.279a2.015 2.015 0 0 0 .422-2.875 2.156 2.156 0 0 0-2.96-.435l-17.505 3.165zm0 0a2.155 2.155 0 0 1 2.96.436l3.36 4.397.042.055.056-.04 11.088-8.013-17.506 3.165z" stroke="url(#h)" stroke-opacity=".5" stroke-width=".142"/></g><defs><linearGradient id="a" x1="32.028" y1=".001" x2="20.722" y2="42.176" gradientUnits="userSpaceOnUse"><stop stop-color="#9296FF"/><stop offset="1" stop-color="#173DE3"/></linearGradient><linearGradient id="d" x1="33.563" y1="15.196" x2="64.795" y2="60.157" gradientUnits="userSpaceOnUse"><stop stop-color="#fff" stop-opacity=".25"/><stop offset="1" stop-color="#fff" stop-opacity="0"/></linearGradient><linearGradient id="g" x1="57.512" y1="35.374" x2="34.042" y2="32.837" gradientUnits="userSpaceOnUse"><stop stop-color="#E8F5FF"/><stop offset="1" stop-color="#E8F5FF" stop-opacity=".21"/></linearGradient><linearGradient id="h" x1="39.946" y1="35.081" x2="57.711" y2="37.952" gradientUnits="userSpaceOnUse"><stop stop-color="#E8F5FF"/><stop offset="1" stop-color="#E8F5FF" stop-opacity="0"/></linearGradient><filter id="b" x="1.169" y="2.958" width="50.124" height="48.461" filterUnits="userSpaceOnUse" color-interpolation-filters="sRGB"><feFlood flood-opacity="0" result="BackgroundImageFix"/><feBlend in="SourceGraphic" in2="BackgroundImageFix" result="shape"/><feGaussianBlur stdDeviation="5.667" result="effect1_foregroundBlur"/></filter><filter id="c" x=".246" y="-10.467" width="93.02" height="100.279" filterUnits="userSpaceOnUse" color-interpolation-filters="sRGB"><feFlood flood-opacity="0" result="BackgroundImageFix"/><feGaussianBlur in="BackgroundImage" stdDeviation="8.501"/><feComposite in2="SourceAlpha" operator="in" result="effect1_backgroundBlur"/><feBlend in="SourceGraphic" in2="effect1_backgroundBlur" result="shape"/></filter><filter id="f" x="25.511" y="19.01" width="44.535" height="39.671" filterUnits="userSpaceOnUse" color-interpolation-filters="sRGB"><feFlood flood-opacity="0" result="BackgroundImageFix"/><feGaussianBlur in="BackgroundImage" stdDeviation="5.313"/><feComposite in2="SourceAlpha" operator="in" result="effect1_backgroundBlur"/><feColorMatrix in="SourceAlpha" values="0 0 0 0 0 0 0 0 0 0 0 0 0 0 0 0 0 0 127 0"/><feOffset dx="3.542" dy="3.542"/><feGaussianBlur stdDeviation="3.542"/><feColorMatrix values="0 0 0 0 0.0588235 0 0 0 0 0.188235 0 0 0 0 0.666667 0 0 0 0.5 0"/><feBlend in2="effect1_backgroundBlur" result="effect2_dropShadow"/><feBlend in="SourceGraphic" in2="effect2_dropShadow" result="shape"/></filter></defs></svg>
